src/assets/duotone/Drop.svg

<svg width="24" height="24" viewBox="0 0 24 24"  xmlns="http://www.w3.org/2000/svg">
<path d="M16.59 7.41L6.30996 17.69C5.82996 18.17 5.00996 18.06 4.71996 17.45C4.19996 16.38 3.89996 15.17 3.89996 13.9C3.87996 8.38 9.47996 3.66 11.38 2.21C11.75 1.93 12.25 1.93 12.61 2.21C13.48 2.87 15.11 4.24 16.64 6.04C16.98 6.44 16.96 7.04 16.59 7.41Z" />
<path opacity="0.4" d="M20.1 13.91C20.1 18.37 16.47 22 12 22C10.21 22 8.53996 21.42 7.18996 20.42C6.69996 20.06 6.65996 19.34 7.08996 18.91L17.16 8.84002C17.63 8.37002 18.42 8.47002 18.74 9.05002C19.56 10.56 20.11 12.2 20.1 13.91Z" />
</svg>

<?xml version="1.0" encoding="UTF-8"?>
<svg width="24" height="24" viewBox="0 0 24 24" xmlns="http://www.w3.org/2000/svg">
 <path d="m16.59 7.41-10.28 10.28c-0.48 0.48-1.3 0.37-1.59-0.24-0.52-1.07-0.82-2.28-0.82-3.55-0.02-5.52 5.58-10.24 7.48-11.69 0.37-0.28 0.87-0.28 1.23 0 0.87 0.66 2.5 2.03 4.03 3.83 0.34 0.4 0.32 1-0.05 1.37z"/>
 <path d="m20.1 13.91c0 4.46-3.63 8.09-8.1 8.09-1.79 0-3.46-0.58-4.81-1.58-0.49-0.36-0.53-1.08-0.1-1.51l10.07-10.07c0.47-0.47 1.26-0.37 1.58 0.21 0.82 1.51 1.37 3.15 1.36 4.86z" opacity=".4"/>
</svg>
